X: 39
T: Missa Et trop penser &mdash; Agnus
C: Gaspar van Weerbeke
%%abc-version 2.0
%%abcx-abcm2ps-target-version 5.9.1 (29 Sep 2008)
%%abc-creator hum2abc beta
%%abcx-conversion-date 2022/03/06 13:05:53
%%abc-copyright Copyright 2016, Kolb, Paul
%%abc-edited-by Zybina, Karina
%%humdrum-veritas 2857536629
%%humdrum-veritas-data 1822862184
%%linebreak <none>
%%barnumbers 0
L: 1/4
M: 3/2
N: Derived from Gas0202e-Missa_Et_trop_penser-Agnus.krn
%%staves [1 2 3 4]
V: 1 clef=treble
V: 2 clef=treble-8
V: 3 clef=treble-8
V: 4 clef=bass
K: F
[V:1] G4G2 | 
[V:2] G>ABcBc | 
[V:3] z6 | 
[V:4] z6 | 
[V:1] B2>A2GE | 
[V:2] Gd2cBG | 
[V:3] z6 | 
[V:4] z6 | 
[V:1] F2F>DE2 | 
[V:2] ADzd2^c | 
[V:3] z6 | 
[V:4] z6 | 
[V:1] DA2GFA- | 
[V:2] d>e f/g/edf- | 
[V:3] z6 | 
[V:4] z6 | 
[V:1] AB>cd2c | 
[V:2] f/_e/d/c/B2z_e | 
[V:3] z6 | 
[V:4] z6 | 
[V:1] Bd>cB2_E | 
[V:2] df>_ed>Bc | 
[V:3] z6 | 
[V:4] z6 | 
[V:1] DF>_EDC2 | 
[V:2] F2zB2A | 
[V:3] z6 | 
[V:4] z2B,,>C, D,/_E,/F, | 
[V:1] B,BAG2^F | 
[V:2] Bd2BA2 | 
[V:3] z6 | 
[V:4] G,>D,F,G,D,2 | 
[V:1] G6 | 
[V:2] G>A B/c<dc/_e- | 
[V:3] z2z2G2- | 
[V:4] G,,3B,,>A,,C,- | 
[V:1] z2DF>_EG- | 
[V:2] e/d/BGd2G | 
[V:3] G2B4 | 
[V:4] C,/B,,/G,,z2z2 | 
[V:1] G/F/Dz2z2 | 
[V:2] zGB>Ac3/B/ | 
[V:3] G4A2 | 
[V:4] z2G,,2F,2 | 
[V:1] GB>Ac>BA/G/ | 
[V:2] Gg2_ecf | 
[V:3] Bd2c3 | 
[V:4] G,>F,G,C,F,3/_E,/ | 
[V:1] FG2F2E | 
[V:2] c/d/_e2c3 | 
[V:3] AB2AG2 | 
[V:4] F,_E,2F,C,2 | 
[V:1] F2z2GB- | 
[V:2] A2BGd2 | 
[V:3] F2z2z2 | 
[V:4] D,2G,B,>A,G,/F,/ | 
[V:1] BG>AB/c/dc | 
[V:2] zGB>AGE | 
[V:3] GB2G2A | 
[V:4] _E,>D,B,,3C, | 
[V:1] BA/G/F2BA- | 
[V:2] FGA2GA | 
[V:3] Bcd4 | 
[V:4] D,_E,D,2G,F,- | 
[V:1] A/G/F/E/DG2^F | 
[V:2] FABcd2 | 
[V:3] c2BGA2 | 
[V:4] F,/_E,/F,G,E,D,2 | 
[V:1] G4 ||  
[V:2] d4 ||  
[V:3] G4 ||  
[V:4] G,,4 ||  
[V:1] [M:2/2]D4 | 
[V:2] [M:2/2]z4 | 
[V:3] [M:2/2]z4 | 
[V:4] [M:2/2]z4 | 
[V:1] E2F2 | 
[V:2] z4 | 
[V:3] z4 | 
[V:4] z4 | 
[V:1] G3E | 
[V:2] G4 | 
[V:3] z4 | 
[V:4] z4 | 
[V:1] F4 | 
[V:2] A2B2 | 
[V:3] z4 | 
[V:4] D,4 | 
[V:1] z4 | 
[V:2] c3A | 
[V:3] z4 | 
[V:4] E,2F,2 | 
[V:1] z4 | 
[V:2] B4 | 
[V:3] z4 | 
[V:4] G,3E, | 
[V:1] z4 | 
[V:2] z2A2 | 
[V:3] z4 | 
[V:4] F,4 | 
[V:1] z4 | 
[V:2] B2c2 | 
[V:3] z4 | 
[V:4] z2E,2 | 
[V:1] z4 | 
[V:2] Ad>cB/A/ | 
[V:3] z4 | 
[V:4] F,2G,2 | 
[V:1] z2F2- | 
[V:2] GFD2 | 
[V:3] z4 | 
[V:4] E,A,>G,F,/E,/ | 
[V:1] FE/D/C2 | 
[V:2] z4 | 
[V:3] z4 | 
[V:4] D,2E,F,- | 
[V:1] DFE2 | 
[V:2] z4 | 
[V:3] z4 | 
[V:4] F,E,/D,/C,2 | 
[V:1] D2G2 | 
[V:2] z4 | 
[V:3] z4 | 
[V:4] D,F,E,2 | 
[V:1] FD2C/B,/ | 
[V:2] z4 | 
[V:3] z4 | 
[V:4] D,2G,2 | 
[V:1] A,2z2 | 
[V:2] z2d2 | 
[V:3] z4 | 
[V:4] F,D,2C,/B,,/ | 
[V:1] z4 | 
[V:2] cA2G/F/ | 
[V:3] z4 | 
[V:4] A,,2D,2 | 
[V:1] z4 | 
[V:2] E2D2 | 
[V:3] z4 | 
[V:4] C,2D,F,- | 
[V:1] z4 | 
[V:2] zd>cB- | 
[V:3] z4 | 
[V:4] F,/G,<B,A,/G,- | 
[V:1] z4 | 
[V:2] BA/G/A2 | 
[V:3] z4 | 
[V:4] G,^F,/E,/F,G, | 
[V:1] z2G2 | 
[V:2] G4 | 
[V:3] z4 | 
[V:4] G,,4 | 
[V:1] A2B2 | 
[V:2] z2d2 | 
[V:3] z4 | 
[V:4] z4 | 
[V:1] c3A | 
[V:2] e2f2 | 
[V:3] z4 | 
[V:4] z4 | 
[V:1] B2G2 | 
[V:2] g3e | 
[V:3] z4 | 
[V:4] z4 | 
[V:1] z2A2 | 
[V:2] f3e | 
[V:3] z4 | 
[V:4] z4 | 
[V:1] BA/B/ c/B/A/G/ | 
[V:2] dc/d/ _e/d/c/B/ | 
[V:3] z4 | 
[V:4] z4 | 
[V:1] F2z2 | 
[V:2] A2z2 | 
[V:3] z4 | 
[V:4] D,C,/D,/ _E,/D,/C,/B,,/ | 
[V:1] F3E | 
[V:2] A>BAd- | 
[V:3] z4 | 
[V:4] A,,2z2 | 
[V:1] FG2^F | 
[V:2] dc/B/A2 | 
[V:3] z4 | 
[V:4] z4 | 
[V:1] G4 | 
[V:2] G>ABc- | 
[V:3] z4 | 
[V:4] z4 | 
[V:1] z2A2 | 
[V:2] c/B/A/G/FA- | 
[V:3] z4 | 
[V:4] A,,>B,,A,,D,- | 
[V:1] A2A2 | 
[V:2] AG2^F | 
[V:3] z4 | 
[V:4] D,C,/B,,/A,,2 | 
[V:1] BA/G/FD | 
[V:2] G2z2 | 
[V:3] z4 | 
[V:4] G,,2D,2 | 
[V:1] CB,A,2 | 
[V:2] z4 | 
[V:3] z4 | 
[V:4] E,2F,2 | 
[V:1] B,2G,2 | 
[V:2] z4 | 
[V:3] z4 | 
[V:4] G,>F, E,/D,/C, | 
[V:1] z4 | 
[V:2] G2B2- | 
[V:3] z4 | 
[V:4] B,,>A,,G,,2 | 
[V:1] z4 | 
[V:2] B2G2- | 
[V:3] z4 | 
[V:4] zG,>A,B,- | 
[V:1] z4 | 
[V:2] G2A2 | 
[V:3] z4 | 
[V:4] B,A,/G,/F,2 | 
[V:1] z4 | 
[V:2] B2d2- | 
[V:3] z4 | 
[V:4] G,3F,/_E,/ | 
[V:1] z4 | 
[V:2] d2c2- | 
[V:3] z4 | 
[V:4] D,B,,F,2- | 
[V:1] z4 | 
[V:2] cAB2 | 
[V:3] z4 | 
[V:4] F,2D,2 | 
[V:1] z4 | 
[V:2] A2G2- | 
[V:3] z4 | 
[V:4] C,2B,,2 | 
[V:1] z4 | 
[V:2] GFF2- | 
[V:3] z4 | 
[V:4] C,2A,,2 | 
[V:1] z4 | 
[V:2] F2E2 | 
[V:3] z4 | 
[V:4] G,,4 | 
[V:1] z4 | 
[V:2] F4 | 
[V:3] z4 | 
[V:4] F,,4 | 
[V:1] z4 | 
[V:2] G>AB3/A/ | 
[V:3] z4 | 
[V:4] z2G,,2 | 
[V:1] z4 | 
[V:2] G/F<GF/D | 
[V:3] z4 | 
[V:4] B,,4 | 
[V:1] z4 | 
[V:2] G>A B/c/d- | 
[V:3] z4 | 
[V:4] G,,4 | 
[V:1] z4 | 
[V:2] dcBA/G/ | 
[V:3] z4 | 
[V:4] A,,2B,,2 | 
[V:1] z4 | 
[V:2] F>G A/B/A- | 
[V:3] z4 | 
[V:4] D,4 | 
[V:1] z4 | 
[V:2] AG/F/E2 | 
[V:3] z4 | 
[V:4] C,4 | 
[V:1] D3C/B,/ | 
[V:2] D2zG- | 
[V:3] z4 | 
[V:4] B,,2G,,2 | 
[V:1] C2C2 | 
[V:2] G^F/E/^F2 | 
[V:3] z4 | 
[V:4] A,,4 | 
[V:1] B,D>CB,- | 
[V:2] G2d2 | 
[V:3] z4 | 
[V:4] G,,4 | 
[V:1] B,A,/G,/A,2 | 
[V:2] c2c2 | 
[V:3] z4 | 
[V:4] z4 | 
[V:1] z4 | 
[V:2] Bd>cB- | 
[V:3] z4 | 
[V:4] z2D,2 | 
[V:1] z2C2 | 
[V:2] BA/G/A2 | 
[V:3] z4 | 
[V:4] C,4 | 
[V:1] DF2_E/D/ | 
[V:2] z4 | 
[V:3] z4 | 
[V:4] B,,D,>C,B,,- | 
[V:1] _E/D/C/B,/C2 | 
[V:2] zG2^F | 
[V:3] z4 | 
[V:4] B,,A,,/G,,/A,,2 | 
[V:1] B,2A,2 | 
[V:2] G2D2 | 
[V:3] z4 | 
[V:4] G,,G,2^F, | 
[V:1] G,DC_E- | 
[V:2] d2_eg- | 
[V:3] z4 | 
[V:4] G,2C,2- | 
[V:1] E/D/C/B,/CB, | 
[V:2] g/f/_e/d/_ed- | 
[V:3] z4 | 
[V:4] C,2A,,B,,- | 
[V:1] G,G2^F | 
[V:2] dc/B/A2 | 
[V:3] z4 | 
[V:4] B,,A,,/G,,/D,2 | 
[V:1] G4 ||  
[V:2] G4 ||  
[V:3] z4 ||  
[V:4] G,,4 ||  
[V:1] [M:3/2]G4G2 | 
[V:2] [M:3/2]G6 | 
[V:3] [M:3/2]z6 | 
[V:4] [M:3/2]z6 | 
[V:1] D3B,>CD/E/ | 
[V:2] B2>G2B2 | 
[V:3] z6 | 
[V:4] G,6 | 
[V:1] F4F3/G/ | 
[V:2] A3B2A/G/ | 
[V:3] d4d2 | 
[V:4] D,3B,,>C,D,/E,/ | 
[V:1] A2zG2F/E/ | 
[V:2] F2z2G2 | 
[V:3] A3B2c | 
[V:4] F,2>G,2_E,2 | 
[V:1] F2>G2A2 | 
[V:2] A4A2 | 
[V:3] d4c2 | 
[V:4] D,3C,/B,,/A,,2 | 
[V:1] D2z2z2 | 
[V:2] B2c3A | 
[V:3] B2A4 | 
[V:4] G,,G,A,^F,F,3/E,//F,// | 
[V:1] d4d2 | 
[V:2] B2>G2B3/c/ | 
[V:3] G6 | 
[V:4] G,4z2 | 
[V:1] A2>B2c2 | 
[V:2] df2ge2 | 
[V:3] z6 | 
[V:4] z6 | 
[V:1] d4c2 | 
[V:2] df>ga>gf/e/ | 
[V:3] z6 | 
[V:4] D,4F,2 | 
[V:1] B2A4 | 
[V:2] dg2^f/e/^f2 | 
[V:3] d4A2 | 
[V:4] G,2D,4 | 
[V:1] G6 | 
[V:2] g2z2G2 | 
[V:3] B4c2 | 
[V:4] zG,>F,_E,/D,/E,2 | 
[V:1] z2B2A2 | 
[V:2] AB>AGF2 | 
[V:3] d4c2 | 
[V:4] D,G,>F,G,A,F, | 
[V:1] GB2G2^F | 
[V:2] zGB>cd2 | 
[V:3] Bd2BA2 | 
[V:4] G,4D,2 | 
[V:1] G2D2C2 | 
[V:2] BG2BA2 | 
[V:3] G4z2 | 
[V:4] G,B,2G,2^F, | 
[V:1] B,A,2G,C2 | 
[V:2] GF>DG2^F | 
[V:3] z6 | 
[V:4] G,D,2B,,A,,2 | 
[V:1] B,D>CB,/A,/G,2 | 
[V:2] G4z2 | 
[V:3] G2B4 | 
[V:4] G,,2z2G,,3/A,,/ | 
[V:1] z2z2A2 | 
[V:2] G2A2c2 | 
[V:3] G4^F2 | 
[V:4] B,,C,>B,,A,,/G,,/A,,2 | 
[V:1] B2>G2B2 | 
[V:2] Bd>cB/A/G2 | 
[V:3] G6 | 
[V:4] G,,6 | 
[V:1] Ac>BA/G/A2 | 
[V:2] Ff2_e/d/c2 | 
[V:3] A6 | 
[V:4] F,4F,2 | 
[V:1] D>_EFG2F/E/ | 
[V:2] B2zB>cd/_e/ | 
[V:3] B6- | 
[V:4] G,2D,_E,2D,/C,/ | 
[V:1] D2>B,2B2 | 
[V:2] f6 | 
[V:3] B4d2 | 
[V:4] B,,4B,,2 | 
[V:1] A2GG>F_E/D/ | 
[V:2] z6 | 
[V:3] c4B2 | 
[V:4] F,2_E,4 | 
[V:1] CF2EE3/D/ | 
[V:2] c4c2 | 
[V:3] A2G4 | 
[V:4] F,2C,4 | 
[V:1] F4z2 | 
[V:2] A4B2- | 
[V:3] F6 | 
[V:4] D,4B,,2 | 
[V:1] G2B4 | 
[V:2] B2G4 | 
[V:3] z2z2G2- | 
[V:4] _E,6- | 
[V:1] G2Gc>BA/G/ | 
[V:2] B_e>dc/B/c2 | 
[V:3] GB>AG/F/G2 | 
[V:4] E,6 | 
[V:1] F2>G2A2 | 
[V:2] d2>e2f2 | 
[V:3] A6 | 
[V:4] D,6 | 
[V:1] DB2AG2 | 
[V:2] z2z2G2 | 
[V:3] B3c3 | 
[V:4] G,2>F,2_E,2 | 
[V:1] F4B2 | 
[V:2] A3B2A/G/ | 
[V:3] d6 | 
[V:4] D,4B,,2 | 
[V:1] Ac>BAGB- | 
[V:2] FA>GAB2 | 
[V:3] c4B2 | 
[V:4] F,4G,2 | 
[V:1] BA/G/FA>E^F | 
[V:2] _e2cd3 | 
[V:3] G2A4 | 
[V:4] _E,2F,2D,2 | 
[V:1] G6- | 
[V:2] B2_ED_E2 | 
[V:3] G6- | 
[V:4] _E,>D,C,B,,C,2 | 
[V:1] G6 |]  
[V:2] D6 |]  
[V:3] G6 |]  
[V:4] G,,6 |]  


